img/faqs/claim-icon.svg

<?xml version="1.0" encoding="UTF-8"?>
<svg width="65px" height="90px" viewBox="0 0 65 90" version="1.1" xmlns="http://www.w3.org/2000/svg" xmlns:xlink="http://www.w3.org/1999/xlink">
    <!-- Generator: Sketch 51.3 (57544) - http://www.bohemiancoding.com/sketch -->
    <title>claim-icon</title>
    <desc>Created with Sketch.</desc>
    <defs>
        <polygon id="path-1" points="0 -0.000159024031 64.2076 -0.000159024031 64.2076 89.2926 0 89.2926"></polygon>
    </defs>
    <g id="FAQs-&amp;-Account" stroke="none" stroke-width="1" fill="none" fill-rule="evenodd">
        <g id="TT-FAQs" transform="translate(-239.000000, -1041.000000)">
            <g id="claim-icon" transform="translate(239.000000, 1041.000000)">
                <mask id="mask-2" fill="white">
                    <use xlink:href="#path-1"></use>
                </mask>
                <g id="Clip-2"></g>
                <path d="M11.2876,60.1157 C8.4176,62.0237 6.7536,64.7787 5.7906,67.9537 C4.5696,71.9797 4.4206,76.7617 4.4356,81.4287 L4.4456,81.6367 L4.4456,82.6827 C4.4456,83.2777 4.6896,83.8197 5.0796,84.2147 C5.4736,84.6027 6.0156,84.8467 6.6106,84.8467 L57.5976,84.8467 C58.1926,84.8467 58.7316,84.6027 59.1246,84.2147 C59.5176,83.8197 59.7616,83.2777 59.7616,82.6827 L59.7616,81.6367 L59.7686,81.6367 L59.7686,81.6267 C59.7876,76.9637 59.6586,72.1737 58.4646,68.1237 L58.4066,67.9537 C57.4476,64.7827 55.7846,62.0297 52.9236,60.1187 C47.3506,62.5047 44.1786,63.9397 41.8806,66.3487 C39.3846,68.9587 37.5356,73.0077 34.4196,80.8567 C34.2276,81.4507 33.7816,81.9607 33.1626,82.2177 C32.0296,82.6887 30.7316,82.1497 30.2626,81.0177 C23.9546,65.8547 23.0546,65.4457 12.7906,60.8007 L11.2876,60.1157 Z M51.1136,54.3277 C51.7276,54.5397 52.3386,54.7827 52.9396,55.0617 C58.3116,57.5537 61.1656,61.7337 62.6616,66.6697 L62.7096,66.8587 C64.0646,71.4617 64.2176,76.6317 64.1986,81.6367 L64.2076,81.6367 L64.2076,82.6827 C64.2076,84.5027 63.4636,86.1567 62.2666,87.3517 C61.0726,88.5527 59.4176,89.2927 57.5976,89.2927 L6.6106,89.2927 C4.7876,89.2927 3.1366,88.5527 1.9396,87.3517 C0.7406,86.1567 -0.0004,84.5027 -0.0004,82.6827 L-0.0004,81.6367 L0.0066,81.4487 C-0.0064,76.4327 0.1626,71.2627 1.5536,66.6697 C3.0516,61.7307 5.8986,57.5517 11.2636,55.0617 C12.0666,54.6887 12.8826,54.3837 13.7016,54.1267 C8.9476,46.9427 6.4056,37.4377 6.9256,28.3227 C7.4336,19.4217 10.8386,10.8477 17.9066,5.0477 C20.6826,2.7717 23.6456,1.3287 26.0416,0.6817 C27.2536,0.3577 28.3686,0.2197 29.3006,0.2727 C30.2816,0.3287 31.1276,0.5967 31.7766,1.0717 C33.7496,0.0327 35.9826,-0.2283 38.2776,0.1907 C40.8646,0.6667 43.5256,2.0277 45.9336,4.1167 C52.3356,9.6687 56.0856,17.9867 56.7426,27.5487 C57.3146,35.8617 55.5376,45.1397 51.1136,54.3277 Z M39.2006,52.4167 C39.3176,53.5237 39.7316,54.5317 40.3666,55.3257 C41.0986,56.2417 42.1146,56.8827 43.2936,57.0937 L43.3046,57.0937 L43.3046,57.0997 L44.0106,57.2257 C45.0426,57.4087 46.0926,57.5967 47.1166,57.8247 C43.3856,59.5267 40.8646,60.9967 38.6676,63.2937 C36.3106,65.7617 34.5466,69.0097 32.2716,74.3947 C27.4546,63.3517 25.4136,61.7087 17.0026,57.8447 C18.0566,57.6077 19.1326,57.4147 20.1976,57.2257 L20.9036,57.0997 L21.1386,57.0447 C22.2216,56.7977 23.1556,56.1837 23.8406,55.3257 C24.4816,54.5227 24.9006,53.5027 25.0116,52.3747 C26.9356,53.6447 29.1126,54.4347 31.5306,54.5457 L32.1016,54.5637 C34.8026,54.5637 37.1586,53.7587 39.2006,52.4167 Z M35.5496,45.6207 C35.6316,45.5407 35.7066,45.4557 35.7816,45.3677 C37.6086,45.1887 39.4506,44.6767 41.1536,43.8947 C40.7146,44.6197 40.2366,45.3117 39.7226,45.9557 C39.5636,46.0977 39.4276,46.2617 39.3136,46.4437 L39.2006,46.5737 C37.3356,48.6767 34.9756,50.1197 32.1016,50.1197 L31.7286,50.1197 C29.0246,49.9957 26.6756,48.4847 24.7566,46.2487 C24.7156,46.1957 24.6736,46.1477 24.6276,46.0977 C23.8766,45.1987 23.1916,44.1877 22.5796,43.1047 C20.2316,38.9587 18.9736,33.8377 18.9736,29.7327 C18.9736,29.3517 18.9796,29.0727 18.9856,28.9007 C19.1186,26.0137 19.7756,23.7047 20.9166,21.6737 C21.7386,20.2137 22.8276,18.8687 24.1626,17.5427 C25.5606,19.1617 27.3676,20.2687 29.3896,21.0727 C32.0476,22.1247 34.9776,22.6117 37.8086,23.0827 C39.9896,23.4447 42.0956,23.7947 43.6036,24.3897 C44.5556,24.7637 45.2026,25.2127 45.2836,25.8087 C45.3186,26.4767 45.3386,27.1077 45.3426,27.6957 C45.3486,28.3187 45.3326,28.9787 45.2996,29.6617 C45.2546,30.6237 45.1536,31.5877 45.0076,32.5727 C44.9216,33.1327 44.8286,33.6807 44.7226,34.2207 C44.6106,34.5167 44.3186,35.2867 44.2636,35.3427 C43.5476,36.9177 42.1416,38.2867 40.4216,39.2877 C38.9636,40.1387 37.2986,40.7107 35.6476,40.9127 L35.5536,40.8147 L35.5466,40.8067 C34.9266,40.1907 34.0746,39.8097 33.1456,39.8097 C32.2126,39.8097 31.3616,40.1907 30.7416,40.8107 L30.7336,40.8067 C30.1206,41.4257 29.7366,42.2777 29.7366,43.2167 C29.7366,44.1597 30.1206,45.0107 30.7336,45.6277 C31.3516,46.2427 32.2036,46.6247 33.1456,46.6247 C34.0846,46.6247 34.9386,46.2427 35.5536,45.6277 L35.5496,45.6207 Z M49.0526,35.1767 L49.0526,35.1787 C49.0406,35.2627 49.0246,35.3477 49.0016,35.4297 C48.9306,35.7767 48.8546,36.1277 48.7736,36.4817 C47.8996,40.3117 46.1636,44.8357 43.4536,48.3717 L43.6066,51.8997 C43.6256,52.1727 43.7106,52.4027 43.8376,52.5627 C43.9096,52.6547 43.9906,52.7167 44.0676,52.7317 L44.0676,52.7257 L44.7696,52.8517 C45.4236,52.9657 46.0776,53.0837 46.7326,53.2087 C51.0936,44.4807 52.8526,35.6767 52.3156,27.8417 C51.7376,19.4607 48.5176,12.2227 43.0346,7.4687 C41.2226,5.8947 39.2906,4.8807 37.4776,4.5497 C35.9406,4.2667 34.4906,4.4987 33.3146,5.3237 C33.2336,5.3827 33.1426,5.4667 33.0706,5.5307 C32.7716,5.8027 32.5396,6.0177 32.1116,6.1777 C32.0246,6.2167 31.9316,6.2497 31.8316,6.2747 C30.2796,6.6947 29.5056,6.3137 28.9336,4.6957 C28.4826,4.6927 27.8866,4.7837 27.1886,4.9717 C25.3126,5.4757 22.9606,6.6287 20.7216,8.4697 C14.6996,13.4077 11.7936,20.8207 11.3526,28.5657 C10.8546,37.3497 13.4996,46.5137 18.3656,53.0407 L19.4336,52.8517 L20.1816,52.7187 C20.2436,52.6937 20.3086,52.6367 20.3676,52.5627 C20.4966,52.4027 20.5816,52.1727 20.5986,51.8997 L20.7536,48.3537 C20.0126,47.4027 19.3366,46.3757 18.7256,45.2967 C15.9926,40.4697 14.5266,34.5067 14.5266,29.7327 C14.5266,29.4857 14.5396,29.1447 14.5586,28.7087 C14.7256,25.0697 15.5706,22.1247 17.0466,19.5017 C18.4786,16.9547 20.4806,14.7667 23.0156,12.5727 L23.1396,12.4667 C23.2856,12.3457 23.4406,12.2457 23.6166,12.1607 C24.7216,11.6347 26.0416,12.0987 26.5716,13.2037 C27.4546,15.0467 29.0736,16.1827 31.0196,16.9577 C33.2136,17.8257 35.9146,18.2737 38.5206,18.7057 C40.9706,19.1117 43.3326,19.5057 45.2356,20.2557 C47.6826,21.2247 49.3826,22.7227 49.6936,25.3027 L49.7036,25.4427 C49.7426,26.1387 49.7686,26.8867 49.7716,27.6767 C49.7746,28.4357 49.7616,29.1717 49.7266,29.8687 C49.6706,31.0387 49.5596,32.1407 49.4016,33.2167 C49.3046,33.8567 49.1896,34.5097 49.0526,35.1767 Z" id="Fill-1" fill="#FFFFFF" mask="url(#mask-2)"></path>
            </g>
        </g>
    </g>
</svg>

<svg height="90" viewBox="0 0 65 90" width="65" xmlns="http://www.w3.org/2000/svg" xmlns:xlink="http://www.w3.org/1999/xlink"><mask id="a" fill="#fff"><path d="m0-.00015902h64.2076v89.29275902h-64.2076z" fill="#fff" fill-rule="evenodd"/></mask><path d="m11.2876 60.1157c-2.87 1.908-4.534 4.663-5.497 7.838-1.221 4.026-1.37 8.808-1.355 13.475l.01.208v1.046c0 .595.244 1.137.634 1.532.394.388.936.632 1.531.632h50.987c.595 0 1.134-.244 1.527-.632.393-.395.637-.937.637-1.532v-1.046h.007v-.01c.019-4.663-.11-9.453-1.304-13.503l-.058-.17c-.959-3.171-2.622-5.924-5.483-7.835-5.573 2.386-8.745 3.821-11.043 6.23-2.496 2.61-4.345 6.659-7.461 14.508-.192.594-.638 1.104-1.257 1.361-1.133.471-2.431-.068-2.9-1.2-6.308-15.163-7.208-15.572-17.472-20.217zm39.826-5.788c.614.212 1.225.455 1.826.734 5.372 2.492 8.226 6.672 9.722 11.608l.048.189c1.355 4.603 1.508 9.773 1.489 14.778h.009v1.046c0 1.82-.744 3.474-1.941 4.669-1.194 1.201-2.849 1.941-4.669 1.941h-50.987c-1.823 0-3.474-.74-4.671-1.941-1.199-1.195-1.94-2.849-1.94-4.669v-1.046l.007-.188c-.013-5.016.156-10.186 1.547-14.779 1.498-4.939 4.345-9.118 9.71-11.608.803-.373 1.619-.678 2.438-.935-4.754-7.184-7.296-16.689-6.776-25.804.508-8.901 3.913-17.475 10.981-23.275 2.776-2.276 5.739-3.719 8.135-4.366 1.212-.324 2.327-.462 3.259-.409.981.056 1.827.324 2.476.799 1.973-1.039 4.206-1.3 6.501-.881 2.587.476 5.248 1.837 7.656 3.926 6.402 5.552 10.152 13.87 10.809 23.432.572 8.313-1.205 17.591-5.629 26.779zm-11.913-1.911c.117 1.107.531 2.115 1.166 2.909.732.916 1.748 1.557 2.927 1.768h.011v.006l.706.126c1.032.183 2.082.371 3.106.599-3.731 1.702-6.252 3.172-8.449 5.469-2.357 2.468-4.121 5.716-6.396 11.101-4.817-11.043-6.858-12.686-15.269-16.55 1.054-.237 2.13-.43 3.195-.619l.706-.126.235-.055c1.083-.247 2.017-.861 2.702-1.719.641-.803 1.06-1.823 1.171-2.951 1.924 1.27 4.101 2.06 6.519 2.171l.571.018c2.701 0 5.057-.805 7.099-2.147zm-3.651-6.796c.082-.08.157-.165.232-.253 1.827-.179 3.669-.691 5.372-1.473-.439.725-.917 1.417-1.431 2.061-.159.142-.295.306-.409.488l-.113.13c-1.865 2.103-4.225 3.546-7.099 3.546h-.373c-2.704-.124-5.053-1.635-6.972-3.871-.041-.053-.083-.101-.129-.151-.751-.899-1.436-1.91-2.048-2.993-2.348-4.146-3.606-9.267-3.606-13.372 0-.381.006-.66.012-.832.133-2.887.79-5.196 1.931-7.227.822-1.46 1.911-2.805 3.246-4.131 1.398 1.619 3.205 2.726 5.227 3.53 2.658 1.052 5.588 1.539 8.419 2.01 2.181.362 4.287.712 5.795 1.307.952.374 1.599.823 1.68 1.419.035.668.055 1.299.059 1.887.006.623-.01 1.283-.043 1.966-.045.962-.146 1.926-.292 2.911-.086.56-.179 1.108-.285 1.648-.112.296-.404 1.066-.459 1.122-.716 1.575-2.122 2.944-3.842 3.945-1.458.851-3.123 1.423-4.774 1.625l-.094-.098-.007-.008c-.62-.616-1.472-.997-2.401-.997-.933 0-1.784.381-2.404 1.001l-.008-.004c-.613.619-.997 1.471-.997 2.41 0 .943.384 1.794.997 2.411.618.615 1.47.997 2.412.997.939 0 1.793-.382 2.408-.997zm13.503-10.444v.002c-.012.084-.028.169-.051.251-.071.347-.147.698-.228 1.052-.874 3.83-2.61 8.354-5.32 11.89l.153 3.528c.019.273.104.503.231.663.072.092.153.154.23.169v-.006l.702.126c.654.114 1.308.232 1.963.357 4.361-8.728 6.12-17.532 5.583-25.367-.578-8.381-3.798-15.619-9.281-20.373-1.812-1.574-3.744-2.588-5.557-2.919-1.537-.283-2.987-.051-4.163.774-.081.059-.172.143-.244.207-.299.272-.531.487-.959.647-.087.039-.18.072-.28.097-1.552.42-2.326.039-2.898-1.579-.451-.003-1.047.088-1.745.276-1.876.504-4.228 1.657-6.467 3.498-6.022 4.938-8.928 12.351-9.369 20.096-.498 8.784 2.147 17.948 7.013 24.475l1.068-.189.748-.133c.062-.025.127-.082.186-.156.129-.16.214-.39.231-.663l.155-3.546c-.741-.951-1.417-1.978-2.028-3.057-2.733-4.827-4.199-10.79-4.199-15.564 0-.247.013-.588.032-1.024.167-3.639 1.012-6.584 2.488-9.207 1.432-2.547 3.434-4.735 5.969-6.929l.124-.106c.146-.121.301-.221.477-.306 1.105-.526 2.425-.062 2.955 1.043.883 1.843 2.502 2.979 4.448 3.754 2.194.868 4.895 1.316 7.501 1.748 2.45.406 4.812.8 6.715 1.55 2.447.969 4.147 2.467 4.458 5.047l.01.14c.039.696.065 1.444.068 2.234.003.759-.01 1.495-.045 2.192-.056 1.17-.167 2.272-.325 3.348-.097.64-.212 1.293-.349 1.96z" fill="#fff" fill-rule="evenodd" mask="url(#a)"/></svg>
